roc-cool.svg

<svg height="62" viewBox="0 0 72 62" width="72" xmlns="http://www.w3.org/2000/svg"><path d="m64 10h-30v26h-34v18c0 4.418 3.582 8 8 8h56c4.418 0 8-3.582 8-8v-36c0-4.418-3.582-8-8-8z" fill="#fe0000"/><path d="m34 10h-26c-4.418 0-8 3.582-8 8v18h34zm-12.126 9.22 4.07-1.096-2.982 2.974c-.242-.696-.614-1.33-1.088-1.878zm.502 3.78c0 2.692-2.182 4.876-4.876 4.876s-4.876-2.184-4.876-4.876 2.184-4.876 4.876-4.876 4.876 2.184 4.876 4.876zm0-8.444-1.096 4.07c-.546-.474-1.182-.846-1.878-1.088zm-4.876-1.306 1.084 4.068c-.35-.066-.714-.104-1.084-.104s-.734.038-1.084.104zm-1.902 4.288c-.696.242-1.33.614-1.878 1.088l-1.096-4.07zm-2.472 1.682c-.474.546-.846 1.182-1.088 1.878l-2.982-2.974zm-1.308 2.696c-.068.352-.104.714-.104 1.084s.036.734.104 1.084l-4.068-1.084zm.22 2.984c.242.696.616 1.332 1.088 1.878l-4.07 1.096zm.586 6.544 1.096-4.07c.546.472 1.182.846 1.878 1.088zm4.876 1.306-1.084-4.068c.352.068.714.104 1.084.104s.734-.036 1.084-.104zm1.902-4.288c.696-.242 1.332-.616 1.878-1.088l1.096 4.07zm2.472-1.682c.474-.546.846-1.182 1.088-1.878l2.982 2.974zm1.308-2.696c.068-.352.104-.714.104-1.084s-.036-.734-.104-1.084l4.068 1.084z" fill="#000095"/><path d="m18.584 17.318-1.084-4.068-1.084 4.068c.35-.066.714-.104 1.084-.104s.734.038 1.084.104zm-6.87 5.682c0-.37.036-.734.104-1.084l-4.068 1.084 4.068 1.084c-.066-.35-.104-.714-.104-1.084zm4.702 5.682 1.084 4.068 1.084-4.068c-.352.068-.714.104-1.084.104s-.734-.038-1.084-.104zm6.87-5.682c0 .37-.036.734-.104 1.084l4.068-1.084-4.068-1.084c.066.35.104.714.104 1.084zm-.91-8.444-2.974 2.982c.696.244 1.332.616 1.878 1.088zm-.502 12.224 4.07 1.096-2.982-2.974c-.242.696-.614 1.33-1.088 1.878zm-9.25 4.664 2.974-2.982c-.696-.242-1.332-.616-1.878-1.088zm.502-12.224-4.07-1.096 2.982 2.974c.242-.696.614-1.33 1.088-1.878zm6.276 9.242 2.974 2.982-1.096-4.07c-.548.474-1.182.846-1.878 1.088zm-7.364-3.562-2.982 2.974 4.07-1.096c-.474-.546-.846-1.18-1.088-1.878zm3.56-7.362-2.974-2.982 1.096 4.07c.548-.474 1.182-.846 1.878-1.088zm10.346.586-4.07 1.096c.474.546.846 1.182 1.088 1.878z" fill="#fff"/><path d="m22.376 23c0 2.693-2.183 4.876-4.876 4.876s-4.876-2.183-4.876-4.876 2.183-4.876 4.876-4.876 4.876 2.183 4.876 4.876z" fill="#fff"/><path d="m72 20.054c0-2.176-.387-4.263-1.098-6.194-.485 5.689-3.518 8.611-6.687 7.25-2.969-1.275-.968-6.246-.82-8.618.249-4.021-.013-8.623-7.317-12.45 3.035 5.806.352 9.413-2.463 9.633-3.122.243-5.982-2.684-4.926-7.434-3.418 2.519-3.518 6.758-2.463 9.5 1.1 2.859-.044 5.234-2.727 5.498-2.998.296-4.663-3.21-3.127-8.796-2.659 3.13-4.263 7.183-4.263 11.611 0 9.912 8.034 17.946 17.945 17.946 9.912 0 17.946-8.034 17.946-17.946z" fill="#f4900c"/><path d="m65.027 25.332c.156 3.255-2.704 4.531-4.243 3.915-2.223-.89-1.627-2.419-2.199-5.585-.572-3.167-2.771-5.366-6.025-6.334 2.375 6.685-1.317 9.149-3.252 9.589-1.976.45-3.961-.001-4.188-4.23-2.306 2.295-3.733 5.47-3.733 8.979 0 .389.024.771.058 1.151 3.241 3.203 7.692 5.183 12.609 5.183 4.918 0 9.369-1.98 12.61-5.183.034-.38.058-.762.058-1.151 0-2.308-.617-4.471-1.695-6.334z" fill="#ffcc4d"/></svg>

<svg xmlns="http://www.w3.org/2000/svg" width="72" height="62" viewBox="0 0 72 62"><path fill="#fe0000" d="M64 10 L34 10 34 36 0 36 0 54 C0 58.418 3.582 62 8 62 L64 62 C68.418 62 72 58.418 72 54 L72 18 C72 13.582 68.418 10 64 10 Z"/><path fill="#000095" d="M34 10 L8 10 C3.582 10 0 13.582 0 18 L0 36 34 36 Z M21.874 19.22 L25.944 18.124 22.962 21.098 C22.72 20.402 22.348 19.768 21.874 19.22 Z M22.376 23 C22.376 25.692 20.194 27.876 17.5 27.876 14.806 27.876 12.624 25.692 12.624 23 12.624 20.308 14.808 18.124 17.5 18.124 20.192 18.124 22.376 20.308 22.376 23 Z M22.376 14.556 L21.28 18.626 C20.734 18.152 20.098 17.78 19.402 17.538 Z M17.5 13.25 L18.584 17.318 C18.234 17.252 17.87 17.214 17.5 17.214 17.13 17.214 16.766 17.252 16.416 17.318 Z M15.598 17.538 C14.902 17.78 14.268 18.152 13.72 18.626 L12.624 14.556 Z M13.126 19.22 C12.652 19.766 12.28 20.402 12.038 21.098 L9.056 18.124 Z M11.818 21.916 C11.75 22.268 11.714 22.63 11.714 23 11.714 23.37 11.75 23.734 11.818 24.084 L7.75 23 Z M12.038 24.9 C12.28 25.596 12.654 26.232 13.126 26.778 L9.056 27.874 Z M12.624 31.444 L13.72 27.374 C14.266 27.846 14.902 28.22 15.598 28.462 Z M17.5 32.75 L16.416 28.682 C16.768 28.75 17.13 28.786 17.5 28.786 17.87 28.786 18.234 28.75 18.584 28.682 Z M19.402 28.462 C20.098 28.22 20.734 27.846 21.28 27.374 L22.376 31.444 Z M21.874 26.78 C22.348 26.234 22.72 25.598 22.962 24.902 L25.944 27.876 Z M23.182 24.084 C23.25 23.732 23.286 23.37 23.286 23 23.286 22.63 23.25 22.266 23.182 21.916 L27.25 23 Z"/><path fill="#fff" d="M18.584 17.318 L17.5 13.25 16.416 17.318 C16.766 17.252 17.13 17.214 17.5 17.214 17.87 17.214 18.234 17.252 18.584 17.318 Z M11.714 23 C11.714 22.63 11.75 22.266 11.818 21.916 L7.75 23 11.818 24.084 C11.752 23.734 11.714 23.37 11.714 23 Z M16.416 28.682 L17.5 32.75 18.584 28.682 C18.232 28.75 17.87 28.786 17.5 28.786 17.13 28.786 16.766 28.748 16.416 28.682 Z M23.286 23 C23.286 23.37 23.25 23.734 23.182 24.084 L27.25 23 23.182 21.916 C23.248 22.266 23.286 22.63 23.286 23 Z M22.376 14.556 L19.402 17.538 C20.098 17.782 20.734 18.154 21.28 18.626 Z M21.874 26.78 L25.944 27.876 22.962 24.902 C22.72 25.598 22.348 26.232 21.874 26.78 Z M12.624 31.444 L15.598 28.462 C14.902 28.22 14.266 27.846 13.72 27.374 Z M13.126 19.22 L9.056 18.124 12.038 21.098 C12.28 20.402 12.652 19.768 13.126 19.22 Z M19.402 28.462 L22.376 31.444 21.28 27.374 C20.732 27.848 20.098 28.22 19.402 28.462 Z M12.038 24.9 L9.056 27.874 13.126 26.778 C12.652 26.232 12.28 25.598 12.038 24.9 Z M15.598 17.538 L12.624 14.556 13.72 18.626 C14.268 18.152 14.902 17.78 15.598 17.538 Z M25.944 18.124 L21.874 19.22 C22.348 19.766 22.72 20.402 22.962 21.098 Z"/><path fill="#fff" d="M22.376 23 C22.376 25.693 20.193 27.876 17.5 27.876 14.807 27.876 12.624 25.693 12.624 23 12.624 20.307 14.807 18.124 17.5 18.124 20.193 18.124 22.376 20.307 22.376 23 Z"/><g><path fill="#f4900c" d="M72 20.054 C72 17.878 71.613 15.791 70.902 13.86 70.417 19.549 67.384 22.471 64.215 21.11 61.246 19.835 63.247 14.864 63.395 12.492 63.644 8.471 63.382 3.869 56.078 0.042 59.113 5.848 56.43 9.455 53.615 9.675 50.493 9.918 47.633 6.991 48.689 2.241 45.271 4.76 45.171 8.999 46.226 11.741 47.326 14.6 46.182 16.975 43.499 17.239 40.501 17.535 38.836 14.029 40.372 8.443 37.713 11.573 36.109 15.626 36.109 20.054 36.109 29.966 44.143 38 54.054 38 63.966 38 72 29.966 72 20.054 Z"/><path fill="#ffcc4d" d="M65.027 25.332 C65.183 28.587 62.323 29.863 60.784 29.247 58.561 28.357 59.157 26.828 58.585 23.662 58.013 20.495 55.814 18.296 52.56 17.328 54.935 24.013 51.243 26.477 49.308 26.917 47.332 27.367 45.347 26.916 45.12 22.687 42.814 24.982 41.387 28.157 41.387 31.666 41.387 32.055 41.411 32.437 41.445 32.817 44.686 36.02 49.137 38 54.054 38 58.972 38 63.423 36.02 66.664 32.817 66.698 32.437 66.722 32.055 66.722 31.666 66.722 29.358 66.105 27.195 65.027 25.332 Z"/></g></svg>
